X:8
T: \"Usserberger Chlepfer (nach Leiggener) D (tinwhistle in D)
T:wz00692 (Hanny Christen)
%%MIDI program 72   % 111 /74 / 79=whistle
R:waltz
M:3/4
L:1/4
K:D %%MIDI gchordon
(3A/B/c/ |: "D"dd>d | "A7"deg | "D"fz"A7"e | "D"dz(3A/B/c/ |dd>d |  
"A7"deg | "D"fz"A7"e | "D"dzf/g/ || "D"ad'f | "A7"a a/g/e | bag | 
"D"a/b/ a/g/ f/g/ | ad'f | "A7"aa/g/e | age |1 "D"dz(3A/B/c/  :|2 "D"dz |]

